!!!!SEGMENT: Snf0254-Virga_Jesse_floruit.krn
!!!id: Snf0254
!!!AGN: Motet
!!!SCT: Edwards, Gasch, Tröster (2022)
!!!voices: 4
!!!COM: Ludwig Senfl
!!!OTL: Virga Jesse floruit
**kern	**text	**kern	**text	**kern	**text	**kern	**text
*part4	*part4	*part3	*part3	*part2	*part2	*part1	*part1
*staff4	*staff4	*staff3	*staff3	*staff2	*staff2	*staff1	*staff1
*I"Bassus	*	*I"Tenor	*	*I"Altus	*	*I"Superius	*
*I'B	*	*I'T	*	*I'A	*	*I'S	*
*clefF4	*	*clefGv2	*	*clefGv2	*	*clefG2	*
*k[b-]	*	*k[b-]	*	*k[b-]	*	*k[b-]	*
*d:	*	*d:	*	*d:	*	*d:	*
*M2/1	*	*M2/1	*	*M2/1	*	*M2/1	*
*met(C|)	*	*met(C|)	*	*met(C|)	*	*met(C|)	*
!!section: Prima pars: Virga Jesse floruit
!!!OMD: Prima pars: Virga Jesse floruit
0r	.	0r	.	1.F	Vir-	[0f	Vir-
.	.	.	.	[2B-y	.	.	.
=1	=1	=1	=1	=1	=1	=1	=1
0r	.	0r	.	2B-]	.	1f]	.
.	.	.	.	2A	.	.	.
.	.	.	.	2.G	.	[1b-y	.
.	.	.	.	4A	.	.	.
=2	=2	=2	=2	=2	=2	=2	=2
0r	.	0r	.	4B-y	.	2b-]	.
.	.	.	.	4c	.	.	.
.	.	.	.	2d	.	2a	.
.	.	.	.	2B-y	.	1g	.
.	.	.	.	2c	.	.	.
=3	=3	=3	=3	=3	=3	=3	=3
1.FF	Vir-	[0F	Vir-	4F	-ga,	[0f	-ga
.	.	.	.	4G	.	.	.
.	.	.	.	4A	.	.	.
.	.	.	.	4B-y	.	.	.
.	.	.	.	2c	.	.	.
[2BB-y	.	.	.	[2d	.	.	.
=4	=4	=4	=4	=4	=4	=4	=4
2BB-]	.	1F]	.	2d]	.	1f]	.
2AA	.	.	.	2c	.	.	.
2.GG	.	[1B-y	.	1d	.	1r	.
4AA	.	.	.	.	.	.	.
=5	=5	=5	=5	=5	=5	=5	=5
4BB-y	.	2B-]	.	2r	.	2r	.
4C	.	.	.	.	.	.	.
2D	.	2A	.	1d	vir-	1f	Jes-
2BB-y	.	1G	.	.	.	.	.
2C	.	.	.	4c	.	2e	.
.	.	.	.	4B-y	.	.	.
=6	=6	=6	=6	=6	=6	=6	=6
1FF	-ga	0F	-ga	1A	-ga	1d	.
1r	.	.	.	2r	.	[1c	-se,
.	.	.	.	[2A	Jes-	.	.
=7	=7	=7	=7	=7	=7	=7	=7
1.C	Jes-	0r	.	2A]	.	0c]	.
.	.	.	.	4G	.	.	.
.	.	.	.	4F	.	.	.
.	.	.	.	2G	.	.	.
[2F	.	.	.	[2A	.	.	.
=8	=8	=8	=8	=8	=8	=8	=8
2F]	.	0r	.	4A]	.	1r	.
.	.	.	.	4F	.	.	.
2E	.	.	.	4G	.	.	.
.	.	.	.	4A	.	.	.
2.D	.	.	.	4B-y	.	2r	.
.	.	.	.	4c	.	.	.
.	.	.	.	[2d	.	[2f	Jes-
4E	.	.	.	.	.	.	.
=9	=9	=9	=9	=9	=9	=9	=9
4F	.	2r	.	4d]	.	2f]	.
4G	.	.	.	4B-y	.	.	.
2A	.	1c	Jes-	2c	.	2e	.
2F	.	.	.	2f	.	1d	-se
2G	.	2B-y	.	2d	.	.	.
=10	=10	=10	=10	=10	=10	=10	=10
1C	-se	1A	-se	2e	.	1c	.
.	.	.	.	1c	.	.	.
1r	.	1G	.	.	.	1r	.
.	.	.	.	2B-y	.	.	.
=11	=11	=11	=11	=11	=11	=11	=11
1.FF	flo-	[0F	flo-	2.A	-se	0r	.
.	.	.	.	4B-y	.	.	.
.	.	.	.	4c	.	.	.
.	.	.	.	4A	.	.	.
[2BB-y	.	.	.	[2B-y	flo-	.	.
=12	=12	=12	=12	=12	=12	=12	=12
2BB-]	.	1F]	.	4B-]	.	1r	.
.	.	.	.	4A	.	.	.
2AA	.	.	.	2F	.	.	.
2.GG	.	[1B-y	.	1G	.	2.d	flo-
4AA	.	.	.	.	.	4c	.
=13	=13	=13	=13	=13	=13	=13	=13
4BB-y	.	2B-]	.	1D	.	4d	.
4C	.	.	.	.	.	4e	.
2D	.	2A	.	.	.	1f	.
2BB-y	.	1G	-ru-	2d	.	.	.
2C	-ru-	.	.	2c	.	2e	-ru-
=14	=14	=14	=14	=14	=14	=14	=14
0FF	-it,	0F	-it,	2.A	.	[0f	-it,
.	.	.	.	4B-y	.	.	.
.	.	.	.	2c	.	.	.
.	.	.	.	2A	.	.	.
=15	=15	=15	=15	=15	=15	=15	=15
1r	.	1r	.	2d	.	0f]	.
.	.	.	.	2d	-ru-	.	.
2r	.	[1A	in	1c	-it,	.	.
[2F	in	.	.	.	.	.	.
=16	=16	=16	=16	=16	=16	=16	=16
4F]	.	1A]	.	2r	.	0r	.
4E	.	.	.	.	.	.	.
2C	.	.	.	2c	in	.	.
2.D	.	1B-y	qua	2.F	qua	.	.
4C	.	.	.	4G	.	.	.
=17	=17	=17	=17	=17	=17	=17	=17
2AA	.	0c	flos	1A	.	1r	.
1A	qua	.	.	.	.	.	.
.	.	.	.	2F	.	[1a	in
[2F	.	.	.	[2f	flos	.	.
=18	=18	=18	=18	=18	=18	=18	=18
4F]	.	0r	.	4f]	.	1a]	.
4G	.	.	.	4e	.	.	.
2A	.	.	.	2c	.	.	.
1G	.	.	.	2.d	.	1b-y	qua
.	.	.	.	4c	.	.	.
=19	=19	=19	=19	=19	=19	=19	=19
2.F	flos	0r	.	1A	.	1cc	flos
4E	.	.	.	.	.	.	.
2C	.	.	.	2.c	.	2r	.
[2E-X	.	.	.	.	.	2g	ap-
.	.	.	.	4B-y	.	.	.
=20	=20	=20	=20	=20	=20	=20	=20
4E-]	.	0r	.	2G	.	1b-y	-pa-
4D	.	.	.	.	.	.	.
2BB-y	.	.	.	2d	ap-	.	.
1D	.	.	.	2.f	-pa-	1a	.
.	.	.	.	4e	.	.	.
=21	=21	=21	=21	=21	=21	=21	=21
2r	.	2r	.	4d	.	2b-y	.
.	.	.	.	4c	.	.	.
2C	ap-	2G	ap-	2e	-ru-	1cc	.
1G	-pa-	1B-y	-pa-	1d	-it,	.	.
.	.	.	.	.	.	2b-y	-ru-
=22	=22	=22	=22	=22	=22	=22	=22
2.F	.	1A	.	1r	.	1cc	-it,
4E	.	.	.	.	.	.	.
2D	.	2B-y	.	2r	.	2r	.
2C	.	[2c	.	2e	ap-	2g	ap-
=23	=23	=23	=23	=23	=23	=23	=23
1G	.	2c]	.	2.d	-pa-	1b-y	-pa-
.	.	2B-y	-ru-	.	.	.	.
.	.	.	.	4e	.	.	.
1F	.	1c	-it	2.f	.	1a	.
.	.	.	.	4e	.	.	.
=24	=24	=24	=24	=24	=24	=24	=24
2G	.	0r	.	2d	.	2b-y	.
2A	-ru-	.	.	2c	-ru-	1cc	.
1G	-it	.	.	1d	-it	.	.
.	.	.	.	.	.	2bnXi	-ru-
=25	=25	=25	=25	=25	=25	=25	=25
0r	.	0c	Al-	2r	.	1cc	-it
.	.	.	.	2e	Al-	.	.
.	.	.	.	2.g	-tis-	2r	.
.	.	.	.	.	.	2e	Al-
.	.	.	.	4f	-si-	.	.
=26	=26	=26	=26	=26	=26	=26	=26
1r	.	1c	-tis-	1e	-mi,	2.g	-tis-
.	.	.	.	.	.	4f	-si-
2r	.	1c	-si-	1r	.	1e	-mi,
2A	Al-	.	.	.	.	.	.
=27	=27	=27	=27	=27	=27	=27	=27
2.c	-tis-	0F	-mi	2A	Al-	2r	.
.	.	.	.	2.c	-tis-	2a	Al-
4B-y	-si-	.	.	.	.	.	.
2.A	-mi	.	.	.	.	2.cc	-tis-
.	.	.	.	4B-y	-si-	.	.
.	.	.	.	[2A	-mi	.	.
4G	.	.	.	.	.	4b-y	-si-
=28	=28	=28	=28	=28	=28	=28	=28
2.F	.	0r	.	4A]	.	2.a	-mi
.	.	.	.	4G	.	.	.
.	.	.	.	2.F	.	.	.
4E	.	.	.	.	.	4g	.
1D	Fi-	.	.	.	.	1f	.
.	.	.	.	4E	.	.	.
.	.	.	.	4F	.	.	.
.	.	.	.	4G	.	.	.
=29	=29	=29	=29	=29	=29	=29	=29
1.C	.	[0c	Fi-	2A	.	1e	.
.	.	.	.	2G	.	.	.
.	.	.	.	2E	.	1g	Fi-
2BB-y	.	.	.	[2G	.	.	.
=30	=30	=30	=30	=30	=30	=30	=30
1AA	.	1c]	.	2G]	.	1a	.
.	.	.	.	2F	.	.	.
2.GG	.	[1B-y	.	2G	.	2.b-y	.
.	.	.	.	2d	Fi-	.	.
4FF	.	.	.	.	.	4a	.
=31	=31	=31	=31	=31	=31	=31	=31
2EE-X	.	2B-]	.	4e-X	.	2g	.
.	.	.	.	4d	.	.	.
2FF	.	2A	.	4c	.	1f	.
.	.	.	.	4B-y	.	.	.
1C	-li-	1G	-li-	2c	.	.	.
.	.	.	.	2G	-li-	2e	-li-
=32	=32	=32	=32	=32	=32	=32	=32
[0FF	-us.	0F	-us.	1A	-us.	1f	-us.
.	.	.	.	2r	.	2r	.
.	.	.	.	2A	Quod	2cc	Quod
=33	=33	=33	=33	=33	=33	=33	=33
0FF]	.	1r	.	4F	lin-	2a	.
.	.	.	.	4G	.	.	.
.	.	.	.	4A	.	2.cc	lin-
.	.	.	.	4B-y	.	.	.
.	.	1F	Quod	2c	.	.	.
.	.	.	.	.	.	4b-y	.
.	.	.	.	[2d	.	2a	.
=34	=34	=34	=34	=34	=34	=34	=34
0r	.	1E	lin-	2d]	.	1g	-gua
.	.	.	.	2c	.	.	.
.	.	1D	-gua	2d	-gua	2f	.
.	.	.	.	[2f	.	2d	.
=35	=35	=35	=35	=35	=35	=35	=35
1BB-y	Quod	2r	.	4f]	.	2.f	.
.	.	.	.	4e	.	.	.
.	.	2D	pro-	2d	.	.	.
.	.	.	.	.	.	4g	.
1AA	lin-	2E	-phe-	1c	.	1a	.
.	.	2F	-ti-	.	.	.	.
=36	=36	=36	=36	=36	=36	=36	=36
1GG	-gua	1G	-ca,	2.B-y	.	2d	.
.	.	.	.	.	.	2dd	pro-
.	.	.	.	4c	.	.	.
2r	.	2r	.	4d	.	2dd	-phe-
.	.	.	.	4G	.	.	.
2GG	pro-	2B-y	quod	2g	pro-	2dd	-ti-
=37	=37	=37	=37	=37	=37	=37	=37
2.AA	-phe-	1A	lin-	2.c	-phe-	1cc	-ca,
4BB-y	-ti-	.	.	4d	-ti-	.	.
1C	-ca,	1G	-gua	1e	-ca,	1r	.
=38	=38	=38	=38	=38	=38	=38	=38
2r	.	2r	.	2r	.	1b-y	quod
2G	pro-	2G	pro-	2d	pro-	.	.
2D	-phe-	2.A	-phe-	2f	-phe-	1a	lin-
2F	-ti-	.	.	2f	-ti-	.	.
.	.	4B-y	-ti-	.	.	.	.
=39	=39	=39	=39	=39	=39	=39	=39
0C	-ca,	0c	-ca,	1e	-ca,	1g	-gua
.	.	.	.	2r	.	2r	.
.	.	.	.	2e	pro-	2g	pro-
=40	=40	=40	=40	=40	=40	=40	=40
1r	.	2r	.	2f	-phe-	2a	-phe-
.	.	2G	pro-	2d	-ti-	2b-y	-ti-
1F	quod	2.A	-phe-	1c	-ca,	1cc	-ca,
.	.	4B-y	-ti-	.	.	.	.
=41	=41	=41	=41	=41	=41	=41	=41
1E	lin-	2c	-ca,	2r	.	2r	.
.	.	2C	pro-	2e	pro-	2g	pro-
1D	-gua	2.F	-phe-	2f	-phe-	2a	-phe-
.	.	.	.	2d	-ti-	2b-y	.
.	.	4G	-ti-	.	.	.	.
=42	=42	=42	=42	=42	=42	=42	=42
2r	.	1A	-ca,	2c	-ca,	2cc	.
2D	pro-	.	.	2f	quod	2a	-ti-
2.E	-phe-	1r	.	1e	lin-	[1g	-ca,
4F	-ti-	.	.	.	.	.	.
=43	=43	=43	=43	=43	=43	=43	=43
0G	-ca,	1r	.	1d	-gua	0g]	.
.	.	1B-y	quod	2r	.	.	.
.	.	.	.	2d	pro-	.	.
=44	=44	=44	=44	=44	=44	=44	=44
2r	.	1A	lin-	2e	-phe-	0r	.
2D	pro-	.	.	2f	-ti-	.	.
2.E	-phe-	1G	-gua	1g	-ca,	.	.
4F	-ti-	.	.	.	.	.	.
=45	=45	=45	=45	=45	=45	=45	=45
1G	-ca,	2r	.	2r	.	1b-y	quod
.	.	2G	pro-	2g	pro-	.	.
1r	.	2.A	-phe-	2.c	-phe-	1a	lin-
.	.	4B-y	-ti-	4d	.	.	.
=46	=46	=46	=46	=46	=46	=46	=46
2r	.	2c	-ca,	2e	.	1g	-gua
2E	pro-	2G	pro-	2e	-ti-	.	.
2F	-phe-	2A	-phe-	1d	-ca,	1r	.
2G	-ti-	2B-y	-ti-	.	.	.	.
=47	=47	=47	=47	=47	=47	=47	=47
1C	-ca,	1c	-ca	2r	.	2r	.
.	.	.	.	2e	pro-	2g	pro-
2r	.	2r	.	2f	-phe-	2a	-phe-
2G	pro-	[2d	scri-	[2g	.	2b-y	-ti-
=48	=48	=48	=48	=48	=48	=48	=48
2A	-phe-	4d]	.	2g]	.	1cc	-ca
.	.	4c	.	.	.	.	.
2A	-ti-	1c	.	2f	-ti-	.	.
1G	-ca	.	.	2g	-ca	2r	.
.	.	2B-y	.	2b-y	.	[2dd	scri-
=49	=49	=49	=49	=49	=49	=49	=49
2F	scri-	1c	.	2a	scri-	4dd]	.
.	.	.	.	.	.	4cc	.
2A	.	.	.	2f	.	1cc	.
1G	.	1d	.	2.g	.	.	.
.	.	.	.	.	.	2bnXi	.
.	.	.	.	4f	.	.	.
=50	=50	=50	=50	=50	=50	=50	=50
1C	-psit,	1c	-psit,	4e	.	0cc	-psit,
.	.	.	.	4d	.	.	.
.	.	.	.	2e	.	.	.
2r	.	1e	com-	[1c	-psit,	.	.
2C	com-	.	.	.	.	.	.
=51	=51	=51	=51	=51	=51	=51	=51
1F	-ple-	2.f	-ple-	1c]	.	2r	.
.	.	.	.	.	.	2cc	com-
.	.	4e	.	.	.	.	.
1BB-y	.	4d	.	1f	com-	1dd	-ple-
.	.	4c	.	.	.	.	.
.	.	[2d	.	.	.	.	.
=52	=52	=52	=52	=52	=52	=52	=52
2.F	.	4d]	.	0f	-ple-	1a	.
.	.	4c	.	.	.	.	.
.	.	1c	.	.	.	.	.
4E	.	.	.	.	.	.	.
4D	.	.	.	.	.	1dd	.
4C	.	.	.	.	.	.	.
2D	.	2BnXi	.	.	.	.	.
=53	=53	=53	=53	=53	=53	=53	=53
0C	-vit	0c	-vit	[0e	-vit	1g	-vit
.	.	.	.	.	.	2r	.
.	.	.	.	.	.	2g	cle-
=54	=54	=54	=54	=54	=54	=54	=54
1r	.	1r	.	1e]	.	4c	-men-
.	.	.	.	.	.	4d	.
.	.	.	.	.	.	4e	.
.	.	.	.	.	.	4f	.
1C	cle-	1c	cle-	1e	cle-	4g	.
.	.	.	.	.	.	4f	.
.	.	.	.	.	.	4g	.
.	.	.	.	.	.	4a	.
=55	=55	=55	=55	=55	=55	=55	=55
2.BB-y	-men-	2.d	-men-	0f	-men-	1.b-y	.
4AA	.	4c	.	.	.	.	.
4BB-y	.	4B-y	.	.	.	.	.
4C	.	4A	.	.	.	.	.
[2D	.	[2B-y	.	.	.	2b-y	-ti-
=56	=56	=56	=56	=56	=56	=56	=56
4D]	.	4B-]	.	0d	-ti-	1f	-a,
4C	.	4A	.	.	.	.	.
4BB-y	.	1A	.	.	.	.	.
4AA	.	.	.	.	.	.	.
2BB-y	.	.	.	.	.	2r	.
2BB-y	-ti-	2G	-ti-	.	.	2b-y	cle-
=57	=57	=57	=57	=57	=57	=57	=57
0AA	-a,	1A	-a,	[0c	-a,	2cc	-men-
.	.	.	.	.	.	2cc	-ti-
.	.	2r	.	.	.	2.a	-a,
.	.	2A	cle-	.	.	.	.
.	.	.	.	.	.	8gL	.
.	.	.	.	.	.	8fJ	.
=58	=58	=58	=58	=58	=58	=58	=58
1C	quan-	2G	-men-	0c]	.	1e	.
.	.	2G	-ti-	.	.	.	.
1FF	-do	2.A	-a,	.	.	2r	.
.	.	.	.	.	.	2a	cle-
.	.	8GL	.	.	.	.	.
.	.	8FJ	.	.	.	.	.
=59	=59	=59	=59	=59	=59	=59	=59
1C	vox,	1E	.	1c	quan-	2g	-men-
.	.	.	.	.	.	2g	-ti-
1r	.	2r	.	1F	-do	2.a	-a,
.	.	2A	cle-	.	.	.	.
.	.	.	.	.	.	8gL	.
.	.	.	.	.	.	8fJ	.
=60	=60	=60	=60	=60	=60	=60	=60
1C	quan-	2G	-men-	1c	vox,	1e	.
.	.	2G	-ti-	.	.	.	.
1FF	-do	2.A	-a,	1r	.	2r	.
.	.	.	.	.	.	2a	cle-
.	.	8GL	.	.	.	.	.
.	.	8FJ	.	.	.	.	.
=61	=61	=61	=61	=61	=61	=61	=61
1C	vox,	1E	.	1c	quan-	2g	-men-
.	.	.	.	.	.	2g	-ti-
1r	.	2r	.	1F	-do	2a	-a,
.	.	2A	cle-	.	.	2cc	cle-
=62	=62	=62	=62	=62	=62	=62	=62
1F	quan-	2A	-men-	1c	vox,	2cc	-men-
.	.	2A	-ti-	.	.	2cc	-ti-
1BB-y	-do	2.B-y	-a,	1r	.	2.dd	-a,
.	.	8AL	.	.	.	8ccL	.
.	.	8GJ	.	.	.	8b-yJ	.
=63	=63	=63	=63	=63	=63	=63	=63
1F	vox,	2F	.	1f	quan-	2a	.
.	.	2A	.	.	.	2cc	.
1r	.	2.G	.	1B-y	-do	2.b-y	.
.	.	8FL	.	.	.	8aL	.
.	.	8EJ	.	.	.	8gJ	.
=64	=64	=64	=64	=64	=64	=64	=64
0r	.	2D	.	1f	vox,	2f	.
.	.	2d	quan-	.	.	2a	.
.	.	2G	-do	1r	.	2.g	.
.	.	[2c	vox	.	.	.	.
.	.	.	.	.	.	8fL	.
.	.	.	.	.	.	8eJ	.
=65	=65	=65	=65	=65	=65	=65	=65
1G	quan-	2c]	.	0r	.	1d	.
.	.	2B-y	an-	.	.	.	.
1C	-do	2c	-ge-	.	.	1e	.
.	.	2c	-li-	.	.	.	.
=66	=66	=66	=66	=66	=66	=66	=66
1G	vox	1B-y	-ca,	1g	quan-	1d	.
2r	.	1r	.	1c	-do	1r	.
2F	an-	.	.	.	.	.	.
=67	=67	=67	=67	=67	=67	=67	=67
1E	-ge-	1c	quan-	1g	vox	0r	.
1D	-li-	1F	-do	2r	.	.	.
.	.	.	.	2f	an-	.	.
=68	=68	=68	=68	=68	=68	=68	=68
1C	-ca	1c	vox	1e	-ge-	1cc	quan-
1r	.	2r	.	1d	-li-	1f	-do
.	.	2B-y	an-	.	.	.	.
=69	=69	=69	=69	=69	=69	=69	=69
0r	.	1A	-ge-	1c	-ca	1cc	vox
.	.	1G	-li-	2r	.	2r	.
.	.	.	.	2g	di-	2b-y	an-
=70	=70	=70	=70	=70	=70	=70	=70
0r	.	1F	-ca	2c	.	1a	-ge-
.	.	.	.	1f	.	.	.
.	.	1r	.	.	.	1g	-li-
.	.	.	.	2e	.	.	.
=71	=71	=71	=71	=71	=71	=71	=71
[0D	di-	2r	.	1f	-xit:	1f	-ca
.	.	2.D	di-	.	.	.	.
.	.	.	.	[1f	‘A-	1r	.
.	.	4E	.	.	.	.	.
.	.	4F	.	.	.	.	.
.	.	4G	.	.	.	.	.
=72	=72	=72	=72	=72	=72	=72	=72
0D]	.	2A	.	1f]	.	0r	.
.	.	2.F	.	.	.	.	.
.	.	.	.	1f	-ve,	.	.
.	.	4G	.	.	.	.	.
.	.	4A	.	.	.	.	.
.	.	4B-y	.	.	.	.	.
=73	=73	=73	=73	=73	=73	=73	=73
[0C	-xit:	4c	.	[0e	ple-	2r	.
.	.	4B-y	.	.	.	.	.
.	.	4A	.	.	.	2.c	di-
.	.	4G	.	.	.	.	.
.	.	1A	.	.	.	.	.
.	.	.	.	.	.	4d	.
.	.	.	.	.	.	4e	.
.	.	.	.	.	.	4f	.
=74	=74	=74	=74	=74	=74	=74	=74
0C]	.	0G	-xit:	1e]	.	4g	.
.	.	.	.	.	.	4f	.
.	.	.	.	.	.	4e	.
.	.	.	.	.	.	4d	.
.	.	.	.	1e	-na	1e	.
=75	=75	=75	=75	=75	=75	=75	=75
0r	.	2r	.	1f	gra-	2d	-xit:
.	.	2.D	‘A-	.	.	2.f	‘A-
.	.	.	.	1d	-ti-	.	.
.	.	4E	.	.	.	4g	.
.	.	4F	.	.	.	4a	.
.	.	4G	.	.	.	4b-y	.
=76	=76	=76	=76	=76	=76	=76	=76
0F	‘A-	2A	.	[0c	-a,	4cc	.
.	.	.	.	.	.	4b-y	.
.	.	2.F	.	.	.	4a	.
.	.	.	.	.	.	4g	.
.	.	.	.	.	.	2.a	.
.	.	4G	.	.	.	.	.
.	.	4A	.	.	.	.	.
.	.	4B-y	.	.	.	8gL	.
.	.	.	.	.	.	8fJ	.
=77	=77	=77	=77	=77	=77	=77	=77
0C	-ve,	2c	.	0c_	.	2e	.
.	.	2A	.	.	.	1f	.
.	.	1G	.	.	.	.	.
.	.	.	.	.	.	2e	.
=78	=78	=78	=78	=78	=78	=78	=78
1r	.	1F	-ve,	0c_	.	[0f	-ve,
[1F	ple-	2r	.	.	.	.	.
.	.	[2F	ple-	.	.	.	.
=79	=79	=79	=79	=79	=79	=79	=79
1F]	.	4F]	.	0c]	.	0f]	.
.	.	4G	.	.	.	.	.
.	.	4A	.	.	.	.	.
.	.	4B-y	.	.	.	.	.
1F	-na	2c	.	.	.	.	.
.	.	2A	.	.	.	.	.
=80	=80	=80	=80	=80	=80	=80	=80
1G	gra-	4B-y	.	0r	.	1r	.
.	.	4c	.	.	.	.	.
.	.	4d	.	.	.	.	.
.	.	4e	.	.	.	.	.
1A	.	2f	-na	.	.	[1f	ple-
.	.	2c	gra-	.	.	.	.
=81	=81	=81	=81	=81	=81	=81	=81
1B-y	.	1d	.	0r	.	1f]	.
1A	.	2.c	.	.	.	1f	-na
.	.	4d	.	.	.	.	.
=82	=82	=82	=82	=82	=82	=82	=82
0G	-ti-	2e	.	0r	.	0g	gra-
.	.	1f	.	.	.	.	.
.	.	2e	-ti-	.	.	.	.
=83	=83	=83	=83	=83	=83	=83	=83
1F	-a.’	2f	-a,	1r	.	0a	.
.	.	2c	.	.	.	.	.
1D	.	[1d	.	1f	gra-	.	.
=84	=84	=84	=84	=84	=84	=84	=84
1G	.	2d]	.	0g	.	0b-y	.
.	.	2B-y	.	.	.	.	.
1E-X	.	2.e-X	ple-	.	.	.	.
.	.	4d	.	.	.	.	.
=85	=85	=85	=85	=85	=85	=85	=85
1F	.	4c	.	1f	.	1a	.
.	.	4B-y	.	.	.	.	.
.	.	1c	.	.	.	.	.
1C	.	.	.	1e	.	1g	-ti-
.	.	2c	-na	.	.	.	.
=86	=86	=86	=86	=86	=86	=86	=86
1D	.	2A	gra-	0d	-ti-	2f	-a.’
.	.	2F	.	.	.	2a	.
1BB-y	.	1B-y	.	.	.	2g	.
.	.	.	.	.	.	[2f	.
=87	=87	=87	=87	=87	=87	=87	=87
0C	.	2A	.	[0cl	-a.’	2f]	.
.	.	4G	.	.	.	4e	.
.	.	4F	.	.	.	4d	.
.	.	2G	.	.	.	4e	.
.	.	.	.	.	.	2f	.
.	.	2G	-ti-	.	.	.	.
.	.	.	.	.	.	4e	.
=88	=88	=88	=88	=88	=88	=88	=88
00FF	.	00F	-a.’	00c]	.	00f	.
=89||	=89||	=89||	=89||	=89||	=89||	=89||	=89||
*M2/1	*	*M2/1	*	*M2/1	*	*M2/1	*
*met(C|)	*	*met(C|)	*	*met(C|)	*	*met(C|)	*
!!section: Secunda pars: Iam patet in virgine
!!!OMD: Secunda pars: Iam patet in virgine
0r	.	0r	.	1F	Iam	1r	.
.	.	.	.	2F	pa-	1f	Iam
.	.	.	.	[2B-y	.	.	.
=90	=90	=90	=90	=90	=90	=90	=90
0r	.	0r	.	2B-]	.	2d	pa-
.	.	.	.	2A	.	1f	.
.	.	.	.	1G	.	.	.
.	.	.	.	.	.	2e	.
=91	=91	=91	=91	=91	=91	=91	=91
1FF	Iam	1r	.	1F	-tet	0f	-tet
2FF	pa-	1F	Iam	1r	.	.	.
[2BB-y	.	.	.	.	.	.	.
=92	=92	=92	=92	=92	=92	=92	=92
2BB-]	.	2D	pa-	2r	.	2r	.
2AA	.	1F	.	2c	in	2f	in
1GG	.	.	.	2d	vir-	1g	vir-
.	.	2E	.	2e	-gi-	.	.
=93	=93	=93	=93	=93	=93	=93	=93
2FF	-tet	0F	-tet	2A	-ne,	1a	-gi-
2F	in	.	.	2c	in	.	.
2BB-y	vir-	.	.	1d	vir-	2f	-ne,
2D	-gi-	.	.	.	.	2f	in
=94	=94	=94	=94	=94	=94	=94	=94
1C	-ne,	0r	.	1e	-gi-	1g	vir-
1r	.	.	.	1c	-ne,	1a	-gi-
=95	=95	=95	=95	=95	=95	=95	=95
2r	.	2r	.	2r	.	2f	-ne
2D	in	2F	in	2f	in	2a	si-
2GG	vir-	1G	vir-	2B-y	vir-	1b-y	-ne
2BB-y	-gi-	.	.	2d	-gi-	.	.
=96	=96	=96	=96	=96	=96	=96	=96
1AA	-ne	1A	-gi-	1c	-ne	1cc	vi-
2r	.	2F	-ne	2r	.	1a	-ri
2F	si-	2A	si-	2c	si-	.	.
=97	=97	=97	=97	=97	=97	=97	=97
2BB-y	-ne	1B-y	-ne	1d	-ne	0r	.
2D	vi-	.	.	.	.	.	.
2C	-ri	1c	vi-	1e	vi-	.	.
2c	se-	.	.	.	.	.	.
=98	=98	=98	=98	=98	=98	=98	=98
2F	.	1A	-ri	2c	-ri	0r	.
2A	-mi-	.	.	2f	se-	.	.
1G	-ne	1B-y	se-	2B-y	.	.	.
.	.	.	.	2d	-mi-	.	.
=99	=99	=99	=99	=99	=99	=99	=99
0r	.	1A	-mi-	1c	-ne	1r	.
.	.	1G	-ne	2r	.	1b-y	se-
.	.	.	.	2g	con-	.	.
=100	=100	=100	=100	=100	=100	=100	=100
1r	.	2A	con-	2c	-ce-	1a	-mi-
.	.	1c	-ce-	2e	.	.	.
1G	con-	.	.	2d	.	1g	-ne
.	.	2B-y	.	2g	.	.	.
=101	=101	=101	=101	=101	=101	=101	=101
2F	-ce-	1c	-ptus.	2c	.	2a	con-
2E	.	.	.	2e	.	1cc	-ce-
2F	.	1r	.	1d	-ptus.	.	.
2G	.	.	.	.	.	2bnXi	.
=102	=102	=102	=102	=102	=102	=102	=102
0C	-ptus.	1c	Sur-	1r	.	1cc	-ptus.
.	.	1c	-gi-	1e	Sur-	1r	.
=103	=103	=103	=103	=103	=103	=103	=103
0r	.	1F	-te,	1f	-gi-	1a	Sur-
.	.	1r	.	1g	-te,	1b-y	-gi-
=104	=104	=104	=104	=104	=104	=104	=104
0r	.	0r	.	1e	qui	1cc	-te,
.	.	.	.	1f	co-	1a	qui
=105	=105	=105	=105	=105	=105	=105	=105
1r	.	0r	.	1d	-li-	1b-y	co-
1E	Sur-	.	.	1c	-tis,	1g	-li-
=106	=106	=106	=106	=106	=106	=106	=106
1F	-gi-	1A	sur-	2r	.	1f	-tis,
.	.	.	.	2f	sur-	.	.
1G	-te,	1B-y	-gi-	2d	-gi-	2r	.
.	.	.	.	2d	-te,	2b-y	sur-
=107	=107	=107	=107	=107	=107	=107	=107
1E	qui	1c	-te,	1e	qui	2g	-gi-
.	.	.	.	.	.	2g	-te,
1F	co-	1A	qui	2c	.	1a	qui
.	.	.	.	[2f	co-	.	.
=108	=108	=108	=108	=108	=108	=108	=108
1D	-li-	1B-y	co-	2f]	.	2f	.
.	.	.	.	2B-y	-li-	1f	co-
1C	-tis,	1G	-li-	1c	-tis,	.	.
.	.	.	.	.	.	2e	-li-
=109	=109	=109	=109	=109	=109	=109	=109
1A	sur-	1F	-tis,	2r	.	2f	-tis
.	.	.	.	2c	sur-	2cc	De-
1B-y	-gi-	1r	.	2f	.	2dd	.
.	.	.	.	2d	-gi-	2ff	.
=110	=110	=110	=110	=110	=110	=110	=110
1c	-te,	1e	sur-	2g	-te,	1ee	.
.	.	.	.	2e	.	.	.
1A	qui	1f	-gi-	1a	.	1cc	-um,
=111	=111	=111	=111	=111	=111	=111	=111
1B-y	co-	1g	-te,	2r	.	1r	.
.	.	.	.	2d	qui	.	.
1G	-li-	1e	qui	2g	co-	2r	.
.	.	.	.	2g	-li-	2b-y	De-
=112	=112	=112	=112	=112	=112	=112	=112
1F	-tis,	1f	co-	1c	-tis	2a	.
.	.	.	.	.	.	1cc	.
1r	.	1d	-li-	2r	.	.	.
.	.	.	.	2d	De-	2bnXi	.
=113	=113	=113	=113	=113	=113	=113	=113
1E	sur-	0c	-tis	2e	.	2cc	-um,
.	.	.	.	2g	.	2g	De-
1F	-gi-	.	.	1f	-um,	2a	.
.	.	.	.	.	.	2cc	.
=114	=114	=114	=114	=114	=114	=114	=114
1G	-te,	0r	.	2r	.	1b-y	.
.	.	.	.	2d	De-	.	.
1E	qui	.	.	2e	.	1g	-um,
.	.	.	.	2g	.	.	.
=115	=115	=115	=115	=115	=115	=115	=115
1F	co-	1A	De-	1f	.	2r	.
.	.	.	.	.	.	2cc	De-
1D	-li-	1B-y	.	1F	-um,	2dd	.
.	.	.	.	.	.	2ff	.
=116	=116	=116	=116	=116	=116	=116	=116
0C	-tis	0c	-um,	2r	.	1ee	.
.	.	.	.	2G	De-	.	.
.	.	.	.	2A	.	2cc	-um,
.	.	.	.	2c	-um,	2g	De-
=117	=117	=117	=117	=117	=117	=117	=117
1AA	De-	0r	.	2r	.	2a	.
.	.	.	.	2c	De-	2cc	.
1BB-y	.	.	.	2d	.	1b-y	.
.	.	.	.	2f	.	.	.
=118	=118	=118	=118	=118	=118	=118	=118
*	*	*M3/3%2	*	*	*	*	*
*	*	*met(3)	*	*	*	*	*
*	*	*Xtuplet	*	*	*	*	*
[0C	-um,	3%2c	qui-	[0e	.	1g	-um,
.	.	3%2G	-a,	.	.	.	.
.	.	.	.	.	.	1cc	qui-
.	.	3%2E	.	.	.	.	.
=119	=119	=119	=119	=119	=119	=119	=119
*	*	*tuplet	*	*	*	*	*
*	*	*M2/1	*	*	*	*	*
*	*	*met(C|)	*	*	*	*	*
0C]	.	1c	qui-	1e]	.	1g	-a
.	.	1G	-a	1c	-um,	1e	.
=120	=120	=120	=120	=120	=120	=120	=120
0r	.	2r	.	2r	.	0f	cer-
.	.	2.F	cer-	2.A	cer-	.	.
.	.	4G	.	4B-y	.	.	.
.	.	4A	.	4c	.	.	.
.	.	4B-y	.	4d	.	.	.
=121	=121	=121	=121	=121	=121	=121	=121
1r	.	4c	.	4e	.	0e	-ni-
.	.	4B-y	.	4d	.	.	.
.	.	4A	.	4c	.	.	.
.	.	4G	.	4B-y	.	.	.
1c	qui-	2A	.	2c	.	.	.
.	.	2A	-ni-	2c	-ni-	.	.
=122	=122	=122	=122	=122	=122	=122	=122
1G	-a	1B-y	-tis,	1d	-tis,	1d	-tis,
1E	.	1r	.	1g	qui-	1r	.
=123	=123	=123	=123	=123	=123	=123	=123
0F	cer-	2r	.	1c	-a	1r	.
.	.	2.A	cer-	.	.	.	.
.	.	.	.	1A	.	1cc	qui-
.	.	4B-y	.	.	.	.	.
.	.	4c	.	.	.	.	.
.	.	4d	.	.	.	.	.
=124	=124	=124	=124	=124	=124	=124	=124
0E	-ni-	4e	.	0r	.	1g	-a
.	.	4d	.	.	.	.	.
.	.	4c	.	.	.	.	.
.	.	4B-y	.	.	.	.	.
.	.	2c	.	.	.	1e	.
.	.	2c	-ni-	.	.	.	.
=125	=125	=125	=125	=125	=125	=125	=125
1D	-tis,	2d	-tis,	2r	.	0f	cer-
.	.	2.A	cer-	2.F	cer-	.	.
1F	qui-	.	.	.	.	.	.
.	.	4B-y	.	4G	.	.	.
.	.	4c	.	4A	.	.	.
.	.	4d	.	4B-y	.	.	.
=126	=126	=126	=126	=126	=126	=126	=126
1C	-a	4e	.	4c	.	0e	-ni-
.	.	4d	.	4B-y	.	.	.
.	.	4c	.	4A	.	.	.
.	.	4B-y	.	4G	.	.	.
1AA	.	2c	.	2A	.	.	.
.	.	2c	-ni-	2A	-ni-	.	.
=127	=127	=127	=127	=127	=127	=127	=127
0BB-y	cer-	2d	-tis,	1F	-tis,	0d	-tis,
.	.	2.D	cer-	.	.	.	.
.	.	.	.	1f	qui-	.	.
.	.	4E	.	.	.	.	.
.	.	4F	.	.	.	.	.
.	.	4G	.	.	.	.	.
=128	=128	=128	=128	=128	=128	=128	=128
0AA	-ni-	4A	.	1c	-a	0r	.
.	.	4G	.	.	.	.	.
.	.	4F	.	.	.	.	.
.	.	4E	.	.	.	.	.
.	.	2F	.	1A	.	.	.
.	.	2F	-ni-	.	.	.	.
=129	=129	=129	=129	=129	=129	=129	=129
1GG	-tis,	1G	-tis,	0B-y	cer-	2r	.
.	.	.	.	.	.	2.d	cer-
1r	.	1B-y	qui-	.	.	.	.
.	.	.	.	.	.	4e	.
.	.	.	.	.	.	4f	.
.	.	.	.	.	.	4g	.
=130	=130	=130	=130	=130	=130	=130	=130
1r	.	1F	-a	0A	-ni-	4a	.
.	.	.	.	.	.	4g	.
.	.	.	.	.	.	4f	.
.	.	.	.	.	.	4e	.
1F	qui-	1D	.	.	.	2f	.
.	.	.	.	.	.	2f	-ni-
=131	=131	=131	=131	=131	=131	=131	=131
1C	-a	4E	cer-	1G	-tis,	1g	-tis,
.	.	4C	.	.	.	.	.
.	.	2.c	.	.	.	.	.
1AA	.	.	.	1r	.	1r	.
.	.	4B-y	.	.	.	.	.
.	.	4A	.	.	.	.	.
.	.	4G	.	.	.	.	.
=132	=132	=132	=132	=132	=132	=132	=132
0BB-y	cer-	1.F	.	2r	.	1r	.
.	.	.	.	2.D	cer-	.	.
.	.	.	.	.	.	1ff	qui-
.	.	.	.	4E	.	.	.
.	.	2D	.	4F	.	.	.
.	.	.	.	4G	.	.	.
=133	=133	=133	=133	=133	=133	=133	=133
0AA	-ni-	4E	.	4A	.	1cc	-a
.	.	4D	.	4G	.	.	.
.	.	4C	.	4F	.	.	.
.	.	4BB-y	.	4E	.	.	.
.	.	2C	.	2F	.	1a	.
.	.	2C	-ni-	2F	-ni-	.	.
=134	=134	=134	=134	=134	=134	=134	=134
[0GG	-tis	1D	-tis	2.G	-tis	2b-y	.
.	.	.	.	.	.	2.g	cer-
.	.	.	.	4A	.	.	.
.	.	1G	et	4B-y	.	.	.
.	.	.	.	4c	.	4a	.
.	.	.	.	4d	.	4b-y	.
.	.	.	.	4c	.	4cc	.
=135	=135	=135	=135	=135	=135	=135	=135
0GG]	.	0G	na-	4B-y	.	4dd	.
.	.	.	.	4A	.	4cc	.
.	.	.	.	4B-y	.	4b-y	.
.	.	.	.	4c	.	4a	.
.	.	.	.	1d	.	2b-y	.
.	.	.	.	.	.	2b-y	-ni-
=136	=136	=136	=136	=136	=136	=136	=136
1r	.	2.C	.	2c	.	2cc	-tis
.	.	.	.	2g	et	2c	et
.	.	4D	.	.	.	.	.
1C	et	4E	.	1g	na-	4c	na-
.	.	4F	.	.	.	4d	.
.	.	4G	.	.	.	4e	.
.	.	4F	.	.	.	4f	.
=137	=137	=137	=137	=137	=137	=137	=137
0C	na-	4E	.	1c	-tum,	4g	.
.	.	4D	.	.	.	4f	.
.	.	4E	.	.	.	4e	.
.	.	4F	.	.	.	4d	.
.	.	1G	.	2r	.	1e	.
.	.	.	.	2c	et	.	.
=138	=138	=138	=138	=138	=138	=138	=138
0FF	-tum	1F	-tum	1c	na-	0f	.
.	.	2r	.	2F	-tum	.	.
.	.	2A	vi-	2c	vi-	.	.
=139	=139	=139	=139	=139	=139	=139	=139
1.C	vi-	2.G	-de-	2.c	-de-	1e	-tum
.	.	4F	.	4d	.	.	.
.	.	4G	.	4e	.	1r	.
.	.	4A	.	4c	.	.	.
[2BB-y	-de-	4B-y	.	[2d	.	.	.
.	.	4A	.	.	.	.	.
=140	=140	=140	=140	=140	=140	=140	=140
2BB-]	.	4G	.	2d]	.	2r	.
.	.	4F	.	.	.	.	.
2AA	.	1F	.	2c	.	2f	vi-
1GG	-bi-	.	.	1B-y	-bi-	2g	-de-
.	.	2E	-bi-	.	.	2g	-bi-
=141	=141	=141	=141	=141	=141	=141	=141
2FF	-tis,	1F	-tis,	2.A	-tis	1a	-tis,
2F	vi-	.	.	.	.	.	.
.	.	.	.	4B-y	.	.	.
2F	-de-	1r	.	4c	.	2r	.
.	.	.	.	4B-y	.	.	.
2F	-bi-	.	.	4c	.	2a	vi-
.	.	.	.	4d	.	.	.
=142	=142	=142	=142	=142	=142	=142	=142
1C	-tis	1.c	vi-	1e	.	2.g	-de-
.	.	.	.	.	.	4f	.
1r	.	.	.	1r	.	4g	.
.	.	.	.	.	.	4a	.
.	.	[2B-y	-de-	.	.	4b-y	.
.	.	.	.	.	.	4a	.
=143	=143	=143	=143	=143	=143	=143	=143
0r	.	2B-]	.	0r	.	4g	.
.	.	.	.	.	.	4f	.
.	.	2A	.	.	.	1f	.
.	.	1G	-bi-	.	.	.	.
.	.	.	.	.	.	2e	-bi-
=144	=144	=144	=144	=144	=144	=144	=144
1r	.	2.F	-tis	1r	.	1f	-tis
.	.	4G	.	.	.	.	.
1F	Re-	4A	.	2r	.	2r	.
.	.	4B-y	.	.	.	.	.
.	.	[2c	.	[2f	Re-	[2a	Re-
=145	=145	=145	=145	=145	=145	=145	=145
1D	-gem	2c]	.	1f]	.	2a]	.
.	.	2B-y	.	.	.	4g	.
.	.	.	.	.	.	4f	.
1C	.	1c	Re-	[1e	.	2a	.
.	.	.	.	.	.	2g	.
=146	=146	=146	=146	=146	=146	=146	=146
2r	.	1A	-gem	2e]	.	2c	.
2F	An-	.	.	2f	.	1cc	.
1G	-ge-	1G	.	1d	-gem	.	.
.	.	.	.	.	.	2bnXi	.
=147	=147	=147	=147	=147	=147	=147	=147
2.A	-lo-	2r	.	1c	.	1cc	-gem
.	.	2c	An-	.	.	.	.
4G	.	.	.	.	.	.	.
2.F	.	2d	-ge-	2r	.	2r	.
.	.	[2c	-lo-	[2f	An-	2cc	An-
4E	.	.	.	.	.	.	.
=148	=148	=148	=148	=148	=148	=148	=148
1D	.	2c]	.	2f]	.	1dd	-ge-
.	.	2B-y	.	2f	-ge-	.	.
1C	-rum,	1c	.	[1e	-lo-	[1ee	-lo-
=149	=149	=149	=149	=149	=149	=149	=149
2r	.	1.A	.	2e]	.	2ee]	.
1F	An-	.	.	2f	.	2cc	.
.	.	.	.	1d	.	1ff	.
2BB-y	-ge-	2B-y	.	.	.	.	.
=150	=150	=150	=150	=150	=150	=150	=150
1C	-lo-	1G	.	1c	-rum,	4ee	.
.	.	.	.	.	.	4dd	.
.	.	.	.	.	.	4cc	.
.	.	.	.	.	.	4b-y	.
1D	.	1F	.	1f	An-	2a	.
.	.	.	.	.	.	[2dd	.
=151	=151	=151	=151	=151	=151	=151	=151
2G	.	2B-y	.	[0g	-ge-	2dd]	.
2C	.	2c	.	.	.	1cc	.
1G	.	1d	.	.	.	.	.
.	.	.	.	.	.	2bnXi	.
=152	=152	=152	=152	=152	=152	=152	=152
2C	.	1c	-rum,	1g]	.	2cc	.
2E	.	.	.	.	.	1c	.
2F	.	2r	.	1f	.	.	.
2D	.	2F	An-	.	.	2B-y	.
=153	=153	=153	=153	=153	=153	=153	=153
1C	.	1G	-ge-	0e	-lo-	2c	-rum,
.	.	.	.	.	.	2.cc	An-
1AA	.	[1A	-lo-	.	.	.	.
.	.	.	.	.	.	4b-y	.
.	.	.	.	.	.	4a	.
.	.	.	.	.	.	4g	.
=154	=154	=154	=154	=154	=154	=154	=154
1D	.	2A]	.	0d	.	2f	.
.	.	2F	.	.	.	2f	-ge-
1BB-y	.	1B-y	.	.	.	2.f	-lo-
.	.	.	.	.	.	4g	.
=155	=155	=155	=155	=155	=155	=155	=155
0F	-rum,	1A	-rum,	[0cl	-rum.	4a	.
.	.	.	.	.	.	4g	.
.	.	.	.	.	.	4f	.
.	.	.	.	.	.	4e	.
.	.	2r	.	.	.	1f	.
.	.	[2A	An-	.	.	.	.
=156	=156	=156	=156	=156	=156	=156	=156
2r	.	2A]	.	0c_	.	2e	-rum,
1C	An-	2G	-ge-	.	.	2g	An-
.	.	2A	-lo-	.	.	2.e	-ge-
2C	-ge-	2G	-rum,	.	.	.	.
.	.	.	.	.	.	4f	.
=157	=157	=157	=157	=157	=157	=157	=157
1C	-lo-	2r	.	0c_	.	2g	-lo-
.	.	2A	An-	.	.	2c	-rum,
1C	-rum,	2G	-ge-	.	.	2r	.
.	.	[2A	-lo-	.	.	[2e	An-
=158	=158	=158	=158	=158	=158	=158	=158
2r	.	2A]	.	0c_	.	2e]	.
2C	An-	2G	.	.	.	2e	-ge-
2.AA	-ge-	1A	.	.	.	2.e	-lo-
4BB-y	.	.	.	.	.	4d	.
=159	=159	=159	=159	=159	=159	=159	=159
2C	-lo-	2G	.	0c_	.	2e	.
2FF	.	2A	.	.	.	1f	.
1C	-rum,	1G	.	.	.	.	.
.	.	.	.	.	.	2e	-rum,
=160	=160	=160	=160	=160	=160	=160	=160
2r	.	2A	.	0c_	.	2r	.
1C	An-	2G	-rum,	.	.	2g	An-
.	.	2r	.	.	.	2.e	-ge-
2C	-ge-	2A	An-	.	.	.	.
.	.	.	.	.	.	4f	.
=161	=161	=161	=161	=161	=161	=161	=161
1C	-lo-	2G	-ge-	0c_	.	2g	-lo-
.	.	2A	-lo-	.	.	2c	-rum,
1C	-rum,	2G	.	.	.	2r	.
.	.	[2A	.	.	.	[2e	An-
=162	=162	=162	=162	=162	=162	=162	=162
2r	.	2A]	.	0c_	.	2e]	.
2C	An-	2G	.	.	.	2e	-ge-
2.AA	-ge-	1A	.	.	.	2.e	-lo-
4BB-y	.	.	.	.	.	4d	.
=163	=163	=163	=163	=163	=163	=163	=163
2C	.	2G	.	0c_	.	2e	.
2FF	.	2A	.	.	.	1f	.
1C	-lo-	1G	.	.	.	.	.
.	.	.	.	.	.	2e	.
=164	=164	=164	=164	=164	=164	=164	=164
00FFl	-rum.	00Fl	-rum.	00c]	.	00fl	-rum.
==	==	==	==	==	==	==	==
*-	*-	*-	*-	*-	*-	*-	*-
!!!system-decoration: [*]
!!!RDF**kern: i = editorial accidental
!!!RDF**kern: l = terminal long
!!!!PTL: <i> New Senfl Edition: Motets for Four Voices (N-V) </i>
!!!PPR: Hollitzer Verlag
!!!PC#: Denkmäler der Tonkunst in Österreich 163.2
!!!PDT: 2022
!!!PED: Scott Lee Edwards, Stefan Gasch, and Sonja Tröster
!!!YEC: Copyright 2022 Denkmäler der Tonkunst in Österreich
!!!YEM: CC-BY-NC 4.0 (https://creativecommons.org/licenses/by-nc/4.0/legalcode)
!!!EED: Benjamin Ory
!!!EEV: 2024/3/4
!!!verovio: header true
!!!header-left: @{PTL}\n@{PED}, eds.\n@{PC#} (@{PDT})&nbsp;\n
!!!header-right:
!!!header-center: